X: 1799
T: Petunia Quadrille - Fig 1
B: australian traditional tunes wiki
M:6/8
L:1/8
R: Jig
Q: 3/8=100
K:G
V:1 
|:"G"B2AG2D|"Em"E2FG2A|"G"B2B BAG|"D7"A2FD3|"G"B2AG2D|"Em"E2FG2A|"G"B2dc2A|G3G3:|
|:"G"B2cd2c|B2cd2c|B2B BAG|"D7"A2FD3|"G"B2AG2D|"Em"E2FG2A|"G"B2d"D7"c2A|"G"G3G3:|
% abcbook-tune_id 6342d53a77cb49a8260bef8c


% abcbook-boost 0
% abcbook-tablature 
% abcbook-transpose 
% abcbook-lastupdated 1665324384597
% abcbook-soundfonts 
% abcbook-repeats 1
% NFF Book 2017

